X:1
T:Lancaster, 76.76 D
T:Samuel Howard (1710-1782)
T:Lancaster, 76.76 D
T:Public Domain
C:Samuel Howard (1710-1782)
Z:Public Domain
%%score ( 1 2 ) ( 3 4 )
L:1/8
M:none
K:A
V:1 treble 
V:2 treble 
V:3 bass 
V:4 bass 
V:1
 [CE]2 | [EA]2 B2 [Ec]2 [FA]2 | [Fd]2 [Ec]2 [EB]2 [EB]2 [Ec]2 [EA]2 [EG]2 [^DF]2 | E6 E2 | %4
 [EF]2 [DG]2 [CA]2 [EG]2 A2 [GB]2 A2 [Ac]2 | [Ee]2 [Fd]2 [Ec]2 ED | [CA]6 |] %7
V:2
 x2 | x2 B2 x4 | x16 | E6 E2 | x8 A2 c2 x4 | x6 B2 | x6 |] %7
V:3
 [A,,A,]2 | [C,A,]2 [E,G,]2 A,2 [F,A,]2 | %2
 F,G,C,D, [E,G,]2 [G,,B,]2 [A,,A,]2 [C,E,]2 [B,,B,]2 B,A, | [E,G,]6 [C,A,]2 | %4
 [D,A,]2 [B,,B,]2 [F,A,]2 E,D, [C,E]2 [B,,D]2 [A,,C]2 [F,A,]2 | [C,A,]2 [D,A,]2 [E,A,]2 [E,G,]2 | %6
 [A,,A,]6 |] %7
V:4
 x2 | x4 A,2 x2 | B,,2 A,2 x9 B,,2 x | x8 | x6 B,2 x8 | x8 | x6 |] %7

